src/topics/icons/supersonic.svg

<svg height="318" preserveAspectRatio="xMidYMid" viewBox="0 0 256 318" width="256" xmlns="http://www.w3.org/2000/svg"><path d="m244.219469 254.173173-233.7982301-101.946902c-6.34336279-2.718584-10.4212389-9.061947-10.4212389-15.858407v-54.8247792c0-9.741593 9.96814159-16.3115045 19.0300885-12.460177l226.3221235 98.7752212c6.343363 2.718584 10.421239 9.061947 10.421239 15.858407v62.753982c0 5.890266-6.116814 9.968142-11.553982 7.702655" fill="#313949"/><g fill="#fb5152"><path d="m253.961062 50.2371681-105.571681-45.98938049c-13.139823-5.66371681-28.318585-5.66371681-41.458408 0l-88.5805305 38.73982299c-11.10088498 4.7575221-18.3504425 15.8584071-18.3504425 27.8654867v63.8867257c0 4.077876.67964602 5.890265 1.81238938 7.929204.90619469-4.077877 4.75752212-8.155753 7.92920354-9.515045l101.26725708-45.7628316c10.647787-4.7575221 23.107964-4.7575221 33.755752 0l107.157522 48.2548676c2.038938.906194 4.077876-.453098 4.077876-2.718584v-80.1982305c-.226549-1.1327433-.906195-2.038938-2.038938-2.4920354"/><path d="m1.81238938 267.100885 105.57168162 45.98938c13.139823 5.663717 28.318584 5.663717 41.458407 0l88.580531-38.739823c11.100885-4.757522 18.350442-15.858407 18.350442-28.092035v-63.886726c0-4.077876-.679646-5.890265-1.812389-7.929203-.906195 4.077876-4.757522 8.155752-7.929204 9.515044l-101.040708 45.762832c-10.647787 4.757522-23.107964 4.757522-33.755752 0l-106.93097322-48.028319c-2.03893805-.906194-4.30442478.453098-4.30442478 2.718584v79.971682c0 1.132743.67964602 2.265487 1.81238938 2.718584"/></g></svg>

<?xml version="1.0" encoding="UTF-8" standalone="no"?>
<svg width="256px" height="318px" viewBox="0 0 256 318" version="1.1" xmlns="http://www.w3.org/2000/svg" xmlns:xlink="http://www.w3.org/1999/xlink" preserveAspectRatio="xMidYMid">
	<g>
		<path d="M244.219469,254.173173 L10.4212389,152.226271 C4.07787611,149.507687 0,143.164324 0,136.367864 L0,81.5430848 C0,71.8014918 9.96814159,65.2315803 19.0300885,69.0829078 L245.352212,167.858129 C251.695575,170.576713 255.773451,176.920076 255.773451,183.716536 L255.773451,246.470518 C255.773451,252.360784 249.656637,256.43866 244.219469,254.173173" fill="#313949"></path>
		<path d="M253.961062,50.2371681 L148.389381,4.24778761 C135.249558,-1.4159292 120.070796,-1.4159292 106.930973,4.24778761 L18.3504425,42.9876106 C7.24955752,47.7451327 0,58.8460177 0,70.8530973 L0,134.739823 C0,138.817699 0.679646018,140.630088 1.81238938,142.669027 C2.71858407,138.59115 6.5699115,134.513274 9.74159292,133.153982 L111.00885,87.3911504 C121.656637,82.6336283 134.116814,82.6336283 144.764602,87.3911504 L251.922124,135.646018 C253.961062,136.552212 256,135.19292 256,132.927434 L256,52.7292035 C255.773451,51.5964602 255.093805,50.6902655 253.961062,50.2371681" fill="#FB5152"></path>
		<path d="M1.81238938,267.100885 L107.384071,313.090265 C120.523894,318.753982 135.702655,318.753982 148.842478,313.090265 L237.423009,274.350442 C248.523894,269.59292 255.773451,258.492035 255.773451,246.258407 L255.773451,182.371681 C255.773451,178.293805 255.093805,176.481416 253.961062,174.442478 C253.054867,178.520354 249.20354,182.59823 246.031858,183.957522 L144.99115,229.720354 C134.343363,234.477876 121.883186,234.477876 111.235398,229.720354 L4.30442478,181.692035 C2.26548673,180.785841 0,182.145133 0,184.410619 L0,264.382301 C0,265.515044 0.679646018,266.647788 1.81238938,267.100885" fill="#FB5152"></path>
	</g>
</svg>
